X:1
T:TUBA RHAPSODY
T:TUBA RHAPSODY
T:1ยบ Alto Sax
T:Clare Grundman
C:Clare Grundman
L:1/8
M:2/4
K:C
V:1 treble nm="Piano" snm="Pno."
V:1
 g z z2 | z2 !>!G2 | !>!d3 c | !>!g2 (!>!^f2 | f)^c =f=c | eB !>!_e2 | e_B !>!d2 | g(^f/g/ f).g | %8
 (^f/g/f) .g(^F/G/ | ^F)G (F/G/F) | (G4 |!pp! (G4) | G4) | e z z f | z2 g z | z f z2 | e z z2 | %17
 z4 |!mf! z2 G2 | dc (!>!g2 |"^21" g)(^f/g/ f).g | (^f/g/f) .g(f/g/ | ^f)g (f/g/g) | .g z z2 | %24
 G z z G | z2 G z | z G z2 |"^2" z4 |!mf! z2 G2 | dc (!>!g2 |"^32" g)(^f/g/ f).g | (^f/g/f) .ga | %32
 _b z z2 |"^4" z4 |!mf! z2 G2 |!>(! dc (!>!g2!>)! | g)(^f/g/ f).g | z2 z (^f/g/ | ^f)g (f/g/f) | %39
 .g(d' c').g | z4 | (dc) G z |"^4" z4 | z2 D2 | AG da | a(_b/a/ b).a | (_b/a/b) .a(b/a/ | (_b4 | %48
 b))(a/_b/ a)(b/a/ | (_b4 | _b))(b/a/ b)(a/b/ |"^59" a)(a/_b/ a)(a/b/ | a)(a/_b/ a)(a/b/ | %53
 a) z z2 | (_e/d/e) .^c^G | z4 | (^f/=f/^f) .^c^G |"^65" z4 |"^3" z4 | z .G .A.B | .c.d .e.^f | %61
"^71" .g z z2 |"^7" z4 |"^79" z4 | z4 | z4 | z!<(! (A/_B/ c/d/e/^f/)!<)! | !>!g(^f/g/ f).g | %68
 (^F/G/F) .GF/G/ | ^F G3 |"^86" e z z =f | z2 g z | z f z2 | e z z2 | z2 (G2 | G3 A | (=B4 | %77
 B)) z z2 | z4 | B2 ^fe | (b2 a2 |"^97" ^g) z z a | z ^g z2 | =g z z2 | G z B z | z4 | z2 B2 | %87
 ^fe (!>!ba |"^104" ^g) z z a | z2 ^g z | =g z z2 | d z z2 | (d4 | d3) z | z4 | z4 | (GB gd) | %97
"^113"!f! g(^f/g/ f).g | (^f/g/f) g(f/g/ | g)(^f/g/ f).g | (^f/g/f) .gf/g/ | g(^f/g/ f).g | %102
 (^f/g/f) .gf/g/ | ga !>!_b z |"^121" z2 z g | a (_b3 | _b)f ae | _ag/_g/ fc | eB _e_B | %109
 d_d/c/ =B^F |"^3" z4 |"^129" z2!mf! D2 | dA g(!>!d' | (d'4) | d') z z2 | z4 | z2 B2 | !>!^f3 e | %118
"^137" ^f z z A | z2 B z | z A z2 | ^G z z2 |!p! ^g z z a | z2 ^g z |"^3" z4 |"^146" z2!mf! B2 | %126
 !>!^f3 e | ^G z z A | z2 ^G z | =G z z2 | z2 z a | (_b/a/b) .a(b/a/ | _b)a (_b/a/_b) | %133
"^154" a z z2 |"^8" z4 |"^4" z4 | z2 z (^f/g/ | ^f)g (f/g/f) | g(^f/g/ f)g |"^170" (g4 | g)G dc | %141
 g^f !>!=f2 | fe _e2 |!>(! (d4 | (d4) | d3) z!>)! |"^177" (d4 | (d4) | (d4) | (d4) | d) z z2 | %151
 z2 (G2 | d2 c2 | (e4 | (e4) | (e4) | e)) z !>!E2 | !>!B3 A | ^c z z d | z2 ^c z | !>!=c3 z | %161
"^192" z G dc | g>^f (g2 | g)(g/^f/ g) z | z2 ^f z | z4 | z2 !>!G2 | !>!d3 c |"^199" g(^f/g/ f)g | %169
 (^f/g/f) .g(f/g/ | (e4) | (e4) | (e4) | e)!mf!G dc | g(^f/g/ f)g | (^f/g/f) .g(e |"^207" (_e4) | %177
 (e4) | e)_B fe | _b>a (b2 | b)(_b/a/ (b2) | b)(_b/a/ b) z |!p! d z z2 | z4 | AB B2 | f3 _e | %186
 f_g/f/ gf | _g/f/g f z | F2 _E2 | (_B4 | (B4) |!mf! _B2) ^fg |!<(! (^f/g/f) .g(f/g/ | %193
 ^f)g (f/g/g)!<)! |"^225" g z z2 | Be b z |"^11" z4 |"^238" z4 | z2 Ae |xA e^c | Ae ^cA | e^c Ae | %202
xA e^c | Ae ^cA | e^c A^f | b z !fermata!z2 ||[M:4/4]"^247" z8 |"^6" z8 | z4 z Be^d | %209
 e3 ^d/^c/ de/d/ e2 ||[M:3/4]"^256" ee/^d/ e^f/e/ f2 | f z (e4 |"_Cresc......." e) ^g2 (g (g2) | %213
 g) b2 (b b2) | b3 b2 (b |!<(! b) b2 b2 b!<)! ||[M:4/4]"^262"!>(! ^c'2 (c'6 | c')!>)! z z2 z4 | %218
"^3" z8 | z (ea^g a4) | x8 |"^269"!mf! z (bc'b c'4) | z (^fgf (g4) | g) z z2 z4 |"^3\n" z8 | %225
"^275" z2 e'2 d'2 ^c'b/(a/ | (b8 | b2)) e'2 d'2 (e2 | (d4 d)) z (e2 | (d6 d)) z |"^2" z8 | %231
"^282" z8 | z2 e2 _e4 | _e z =e2 _e4 | _e z z2 z4 | !fermata!z8 ||[M:2/4]"^287""^12" z4 | z2 D2 | %238
 AG da | a(_b/a/ b).a | (_b/a/b) (.a2 | _b) z z2 |"^3" z4 | F2 _B2 | f2 _b2 |!>(! (d4 | (d4)!>)! | %247
"^311" (d4) | (d4) | d) z z2 |"^8" z4 | z2 _B2 | f_e (_b2 | b) z z2 |"^325""^5" z4 | z2 _B2 | %256
 f_e _b_a | g z z _a | z2 _b z | z _a2 z | G z z2 |"^336""^6" z4 | (!>!d2 c2 | B) z z c | z2 (B2 | %265
 _B4 | =B4 | ^c4) | (e4 | (e4) | e) z z2 |"^350""^6" z4 | z =f (e/f/e) | !>!f4- | f4- | f z z2 | %276
 z4 | z A ed | a(^g/a/ g)a | (^g/a/g) a(g/a/ | ^g)a (g/a/g) |"^366" a z z2 |"^4" z4 | BA eb | %284
 b(c'/b/ c').b | (c'/b/c') .b2 | g(^f/g/ f).g | (^f/g/f) .g2 | _a(g/a/ g).a | g(_a/g/ ^f).^g | %290
 ab c'b | af c2 | c4 | c z a z | z _b z2 |"^383" a z z2 | =G2 A=B | cd ed/e/ | de d/e/d | (Te4 | %300
 (e4) | e) z z2 | z4 | z4 | a z _b z | z2 a z | z4 | z G AB | cd ed/e/ | de d/e/d |"^398" (Te4 | %311
 (e4) | (e4) | (e4) | e) z z2 | z4 | z2!<(! (A/B/)c/d/!<)! | e(d/e/ d)e | (d/e/d) (Te2 | (e4) | %320
 e)G AB | c(d/e/ f)g | aA (B/c/)d/e/ | fg ab |!<(! c'd ef | g!<)!!f! z z2 | !>!c z z !>!c | %327
 z2 !>!c z |!ff! c(^c/d/ ^d).e | (f/^f/f) .^g(a/^a/ | b) z z2 | z4 | c' z z2 |] %333

